report_00007_2020-12-11T15:55:29.892Z/network-rtt/comparison/line/9_vs_10.svg

<svg width="640" height="500" xmlns="http://www.w3.org/2000/svg" xmlns:xlink="http://www.w3.org/1999/xlink"><path fill="#fff" d="M0 0h640v500H0z"/><defs><path id="d" stroke-width=".222" stroke="currentColor" d="M-1-1h2v2h-2z"/><path id="b" stroke-width=".222" stroke="currentColor" d="M0-1.33l-1.33 2h2.66z"/><path id="f" stroke-width=".222" stroke="currentColor" d="M0 1.33L1.265.411.782-1.067l-1.564-.009-.483 1.487z"/><use xlink:href="#b" id="c" stroke="currentColor" transform="rotate(180)"/><use xlink:href="#d" id="e" stroke="currentColor" transform="rotate(45)"/><circle id="a" stroke-width=".222" stroke="currentColor" cx="0" cy="0" r="1"/></defs><g fill="none" color="#000" stroke="currentColor"><path stroke="#000" d="M53.9 442.1h9m552.1 0h-9"/><text transform="translate(45.6 446)" stroke="none" fill="#000" font-family="Arial" font-size="12" text-anchor="end"><tspan>0</tspan></text></g><g fill="none" color="#000" stroke="currentColor"><path stroke="#000" d="M53.9 384.9h9m552.1 0h-9"/><text transform="translate(45.6 388.8)" stroke="none" fill="#000" font-family="Arial" font-size="12" text-anchor="end"><tspan>0.5</tspan></text></g><g fill="none" color="#000" stroke="currentColor"><path stroke="#000" d="M53.9 327.7h9m552.1 0h-9"/><text transform="translate(45.6 331.6)" stroke="none" fill="#000" font-family="Arial" font-size="12" text-anchor="end"><tspan>1</tspan></text></g><g fill="none" color="#000" stroke="currentColor"><path stroke="#000" d="M53.9 270.4h9m552.1 0h-9"/><text transform="translate(45.6 274.3)" stroke="none" fill="#000" font-family="Arial" font-size="12" text-anchor="end"><tspan>1.5</tspan></text></g><g fill="none" color="#000" stroke="currentColor"><path stroke="#000" d="M53.9 213.2h9m552.1 0h-9"/><text transform="translate(45.6 217.1)" stroke="none" fill="#000" font-family="Arial" font-size="12" text-anchor="end"><tspan>2</tspan></text></g><g fill="none" color="#000" stroke="currentColor"><path stroke="#000" d="M53.9 155.9h9m552.1 0h-9"/><text transform="translate(45.6 159.8)" stroke="none" fill="#000" font-family="Arial" font-size="12" text-anchor="end"><tspan>2.5</tspan></text></g><g fill="none" color="#000" stroke="currentColor"><path stroke="#000" d="M53.9 98.7h9m552.1 0h-9"/><text transform="translate(45.6 102.6)" stroke="none" fill="#000" font-family="Arial" font-size="12" text-anchor="end"><tspan>3</tspan></text></g><g fill="none" color="#000" stroke="currentColor"><path stroke="#000" d="M53.9 41.4h9m552.1 0h-9"/><text transform="translate(45.6 45.3)" stroke="none" fill="#000" font-family="Arial" font-size="12" text-anchor="end"><tspan>3.5</tspan></text></g><g fill="none" color="#000" stroke="currentColor"><path stroke="#000" d="M53.9 446v-9m0-418.9v9"/><text transform="translate(53.9 467.9)" stroke="none" fill="#000" font-family="Arial" font-size="12" text-anchor="middle"><tspan>0</tspan></text></g><g fill="none" color="#000" stroke="currentColor"><path stroke="#000" d="M110.6 446v-9m0-418.9v9"/><text transform="translate(110.6 467.9)" stroke="none" fill="#000" font-family="Arial" font-size="12" text-anchor="middle"><tspan>10</tspan></text></g><g fill="none" color="#000" stroke="currentColor"><path stroke="#000" d="M167.3 446v-9m0-418.9v9"/><text transform="translate(167.3 467.9)" stroke="none" fill="#000" font-family="Arial" font-size="12" text-anchor="middle"><tspan>20</tspan></text></g><g fill="none" color="#000" stroke="currentColor"><path stroke="#000" d="M223.9 446v-9m0-418.9v9"/><text transform="translate(223.9 467.9)" stroke="none" fill="#000" font-family="Arial" font-size="12" text-anchor="middle"><tspan>30</tspan></text></g><g fill="none" color="#000" stroke="currentColor"><path stroke="#000" d="M280.6 446v-9m0-418.9v9"/><text transform="translate(280.6 467.9)" stroke="none" fill="#000" font-family="Arial" font-size="12" text-anchor="middle"><tspan>40</tspan></text></g><g fill="none" color="#000" stroke="currentColor"><path stroke="#000" d="M337.3 446v-9m0-418.9v9"/><text transform="translate(337.3 467.9)" stroke="none" fill="#000" font-family="Arial" font-size="12" text-anchor="middle"><tspan>50</tspan></text></g><g fill="none" color="#000" stroke="currentColor"><path stroke="#000" d="M394 446v-9m0-418.9v9"/><text transform="translate(394 467.9)" stroke="none" fill="#000" font-family="Arial" font-size="12" text-anchor="middle"><tspan>60</tspan></text></g><g fill="none" color="#000" stroke="currentColor"><path stroke="#000" d="M450.6 446v-9m0-418.9v9"/><text transform="translate(450.6 467.9)" stroke="none" fill="#000" font-family="Arial" font-size="12" text-anchor="middle"><tspan>70</tspan></text></g><g fill="none" color="#000" stroke="currentColor"><path stroke="#000" d="M507.3 446v-9m0-418.9v9"/><text transform="translate(507.3 467.9)" stroke="none" fill="#000" font-family="Arial" font-size="12" text-anchor="middle"><tspan>80</tspan></text></g><g fill="none" color="#000" stroke="currentColor"><path stroke="#000" d="M564 446v-9m0-418.9v9"/><text transform="translate(564 467.9)" stroke="none" fill="#000" font-family="Arial" font-size="12" text-anchor="middle"><tspan>90</tspan></text></g><path stroke="#000" d="M53.9 18.1V446H615V18.1H53.9z" fill="none" color="#000"/><text transform="translate(275.6 485.9)" stroke="none" fill="#000" font-family="Arial" font-size="12" text-anchor="end" color="#000"><tspan>pages+cached+noexternal+nocss</tspan></text><path stroke="#9400D3" d="M283.9 482h42.2M53.9 436.2l5.7-3 5.6.9 5.7-1.1 5.7 2.5 5.6-2.1 5.7.5 5.7 2.3 5.6-5.3 5.7 3.3 5.7.2 5.6.3 5.7 1.2 5.7-1.6 5.6 2 5.7-.6 5.7-.7 5.7-.6 5.6 1.4h11.4l5.6-2.6 5.7 2.4 5.7-2 5.6 1 5.7 1.9 5.7-4 5.6 2 5.7.4 5.7 1.1 5.6-3.7 5.7.8 5.7 3.3 5.6-1.5 5.7-1 5.7 1.5 5.6-2.6 5.7 1.8 5.7-.3h11.3l5.7-.7 5.6.3h5.7l5.7 2h5.6l5.7-1 5.7-1.6h5.6l5.7 3.1 5.7-.6 5.7.5 5.6-3.6 5.7 1.4 5.7-1.7 5.6 4.2 5.7-1.4 5.7-3.4 5.6 2.6 5.7 1.3 5.7-1.9 5.6.8 5.7.8 5.7-.6 5.6-.9 5.7.1 5.7 1.5 5.6.1 5.7-1.9 5.7 1.5 5.6 1.2 5.7-2.5h5.7l5.6-1 5.7.9 5.7-.4 5.6-1.4 5.7 2.6 5.7-.1 5.6-1.1 5.7-.9 5.7.7 5.6 1.8 5.7-.5 5.7.3 5.7-2.7 5.6 1.1 5.7 2.6h5.7l5.6.9 5.7-3.4 5.7-.1 5.6.7 5.7 2.7 5.7-2.3 5.6 1.7 5.7-.7 5.7-2.8 5.6 2.3h5.7" fill="none" color="#000"/><text transform="translate(575.1 485.9)" stroke="none" fill="#000" font-family="Arial" font-size="12" text-anchor="end" color="#000"><tspan>pages+cached+noexternal+nojs</tspan></text><path stroke="#009E73" d="M583.4 482h42.2M53.9 432.9l5.7-1.1 5.6 2 5.7-.1 5.7.1 5.6 1.9 5.7-3.6 5.7 1.4 5.6.2 5.7-2.2 5.7-5.1 5.6 8.5 5.7-4.7 5.7 5 5.6-5.8 5.7 6.4 5.7-10.4 5.7 1.4 5.6 6.8 5.7.9 5.7-3.3 5.6 3.6 5.7-.3 5.7-8.2 5.6 7.9 5.7-3.9 5.7 6.1 5.6-2.8 5.7 2.5 5.7-10.8 5.6 10.8 5.7 1.7 5.7-356.2 5.6 342.9 5.7 7.6 5.7-.2 5.6 1.7 5.7.5 5.7 1.6 5.6-3.6 5.7 3.6 5.7-1 5.6-393.6 5.7 392.7 5.7-.1 5.6-.8 5.7 3.1 5.7-1.9 5.6-.9 5.7 2.8 5.7-323.9 5.7 321.6 5.6.1 5.7-8 5.7 9.8 5.6-409.3 5.7 407.9 5.7-11.5 5.6 6.3 5.7 5 5.7-1.8 5.6-.3 5.7-.7 5.7 3.6 5.6-5.5 5.7 4.3 5.7-7.6 5.6 7 5.7 1.1 5.7-.7 5.6-5.2 5.7 6.3 5.7-1.6 5.6 2.5 5.7 1.1 5.7-2.3 5.6-1.9 5.7 2.3 5.7 1.7 5.6-10.6 5.7 10 5.7-.5 5.6-.7 5.7 2.1 5.7-3.5 5.7 3.4 5.6-2.3 5.7.2 5.7-.3 5.6-.7 5.7-5.9 5.7 8.3 5.6-1.2 5.7-9.1 5.7 7.5 5.6 1.7 5.7-1 5.7-.5 5.6-2.3 5.7.4" fill="none" color="#000"/><g fill="none" color="#000" stroke="currentColor"><path stroke="#000" d="M53.9 18.1V446H615V18.1H53.9z"/></g></svg>

<?xml version="1.0" encoding="utf-8"  standalone="no"?>
<svg 
 width="640" height="500"
 viewBox="0 0 640 500"
 xmlns="http://www.w3.org/2000/svg"
 xmlns:xlink="http://www.w3.org/1999/xlink"
>

<title>Gnuplot</title>
<desc>Produced by GNUPLOT 5.4 patchlevel 0 </desc>

<g id="gnuplot_canvas">

<rect x="0" y="0" width="640" height="500" fill="#ffffff"/>
<defs>

	<circle id='gpDot' r='0.5' stroke-width='0.5' stroke='currentColor'/>
	<path id='gpPt0' stroke-width='0.222' stroke='currentColor' d='M-1,0 h2 M0,-1 v2'/>
	<path id='gpPt1' stroke-width='0.222' stroke='currentColor' d='M-1,-1 L1,1 M1,-1 L-1,1'/>
	<path id='gpPt2' stroke-width='0.222' stroke='currentColor' d='M-1,0 L1,0 M0,-1 L0,1 M-1,-1 L1,1 M-1,1 L1,-1'/>
	<rect id='gpPt3' stroke-width='0.222' stroke='currentColor' x='-1' y='-1' width='2' height='2'/>
	<rect id='gpPt4' stroke-width='0.222' stroke='currentColor' fill='currentColor' x='-1' y='-1' width='2' height='2'/>
	<circle id='gpPt5' stroke-width='0.222' stroke='currentColor' cx='0' cy='0' r='1'/>
	<use xlink:href='#gpPt5' id='gpPt6' fill='currentColor' stroke='none'/>
	<path id='gpPt7' stroke-width='0.222' stroke='currentColor' d='M0,-1.33 L-1.33,0.67 L1.33,0.67 z'/>
	<use xlink:href='#gpPt7' id='gpPt8' fill='currentColor' stroke='none'/>
	<use xlink:href='#gpPt7' id='gpPt9' stroke='currentColor' transform='rotate(180)'/>
	<use xlink:href='#gpPt9' id='gpPt10' fill='currentColor' stroke='none'/>
	<use xlink:href='#gpPt3' id='gpPt11' stroke='currentColor' transform='rotate(45)'/>
	<use xlink:href='#gpPt11' id='gpPt12' fill='currentColor' stroke='none'/>
	<path id='gpPt13' stroke-width='0.222' stroke='currentColor' d='M0,1.330 L1.265,0.411 L0.782,-1.067 L-0.782,-1.076 L-1.265,0.411 z'/>
	<use xlink:href='#gpPt13' id='gpPt14' fill='currentColor' stroke='none'/>
	<filter id='textbox' filterUnits='objectBoundingBox' x='0' y='0' height='1' width='1'>
	  <feFlood flood-color='#FFFFFF' flood-opacity='1' result='bgnd'/>
	  <feComposite in='SourceGraphic' in2='bgnd' operator='atop'/>
	</filter>
	<filter id='greybox' filterUnits='objectBoundingBox' x='0' y='0' height='1' width='1'>
	  <feFlood flood-color='lightgrey' flood-opacity='1' result='grey'/>
	  <feComposite in='SourceGraphic' in2='grey' operator='atop'/>
	</filter>
</defs>
<g fill="none" color="#FFFFFF" stroke="black" stroke-width="1.00" stroke-linecap="butt" stroke-linejoin="miter">
</g>
<g fill="none" color="black" stroke="currentColor" stroke-width="1.00" stroke-linecap="butt" stroke-linejoin="miter">
	<path stroke='black'  d='M53.9,442.1 L62.9,442.1 M615.0,442.1 L606.0,442.1  '/>	<g transform="translate(45.6,446.0)" stroke="none" fill="black" font-family="Arial" font-size="12.00"  text-anchor="end">
		<text><tspan font-family="Arial" > 0</tspan></text>
	</g>
</g>
<g fill="none" color="black" stroke="currentColor" stroke-width="1.00" stroke-linecap="butt" stroke-linejoin="miter">
	<path stroke='black'  d='M53.9,384.9 L62.9,384.9 M615.0,384.9 L606.0,384.9  '/>	<g transform="translate(45.6,388.8)" stroke="none" fill="black" font-family="Arial" font-size="12.00"  text-anchor="end">
		<text><tspan font-family="Arial" > 0.5</tspan></text>
	</g>
</g>
<g fill="none" color="black" stroke="currentColor" stroke-width="1.00" stroke-linecap="butt" stroke-linejoin="miter">
	<path stroke='black'  d='M53.9,327.7 L62.9,327.7 M615.0,327.7 L606.0,327.7  '/>	<g transform="translate(45.6,331.6)" stroke="none" fill="black" font-family="Arial" font-size="12.00"  text-anchor="end">
		<text><tspan font-family="Arial" > 1</tspan></text>
	</g>
</g>
<g fill="none" color="black" stroke="currentColor" stroke-width="1.00" stroke-linecap="butt" stroke-linejoin="miter">
	<path stroke='black'  d='M53.9,270.4 L62.9,270.4 M615.0,270.4 L606.0,270.4  '/>	<g transform="translate(45.6,274.3)" stroke="none" fill="black" font-family="Arial" font-size="12.00"  text-anchor="end">
		<text><tspan font-family="Arial" > 1.5</tspan></text>
	</g>
</g>
<g fill="none" color="black" stroke="currentColor" stroke-width="1.00" stroke-linecap="butt" stroke-linejoin="miter">
	<path stroke='black'  d='M53.9,213.2 L62.9,213.2 M615.0,213.2 L606.0,213.2  '/>	<g transform="translate(45.6,217.1)" stroke="none" fill="black" font-family="Arial" font-size="12.00"  text-anchor="end">
		<text><tspan font-family="Arial" > 2</tspan></text>
	</g>
</g>
<g fill="none" color="black" stroke="currentColor" stroke-width="1.00" stroke-linecap="butt" stroke-linejoin="miter">
	<path stroke='black'  d='M53.9,155.9 L62.9,155.9 M615.0,155.9 L606.0,155.9  '/>	<g transform="translate(45.6,159.8)" stroke="none" fill="black" font-family="Arial" font-size="12.00"  text-anchor="end">
		<text><tspan font-family="Arial" > 2.5</tspan></text>
	</g>
</g>
<g fill="none" color="black" stroke="currentColor" stroke-width="1.00" stroke-linecap="butt" stroke-linejoin="miter">
	<path stroke='black'  d='M53.9,98.7 L62.9,98.7 M615.0,98.7 L606.0,98.7  '/>	<g transform="translate(45.6,102.6)" stroke="none" fill="black" font-family="Arial" font-size="12.00"  text-anchor="end">
		<text><tspan font-family="Arial" > 3</tspan></text>
	</g>
</g>
<g fill="none" color="black" stroke="currentColor" stroke-width="1.00" stroke-linecap="butt" stroke-linejoin="miter">
	<path stroke='black'  d='M53.9,41.4 L62.9,41.4 M615.0,41.4 L606.0,41.4  '/>	<g transform="translate(45.6,45.3)" stroke="none" fill="black" font-family="Arial" font-size="12.00"  text-anchor="end">
		<text><tspan font-family="Arial" > 3.5</tspan></text>
	</g>
</g>
<g fill="none" color="black" stroke="currentColor" stroke-width="1.00" stroke-linecap="butt" stroke-linejoin="miter">
	<path stroke='black'  d='M53.9,446.0 L53.9,437.0 M53.9,18.1 L53.9,27.1  '/>	<g transform="translate(53.9,467.9)" stroke="none" fill="black" font-family="Arial" font-size="12.00"  text-anchor="middle">
		<text><tspan font-family="Arial" > 0</tspan></text>
	</g>
</g>
<g fill="none" color="black" stroke="currentColor" stroke-width="1.00" stroke-linecap="butt" stroke-linejoin="miter">
	<path stroke='black'  d='M110.6,446.0 L110.6,437.0 M110.6,18.1 L110.6,27.1  '/>	<g transform="translate(110.6,467.9)" stroke="none" fill="black" font-family="Arial" font-size="12.00"  text-anchor="middle">
		<text><tspan font-family="Arial" > 10</tspan></text>
	</g>
</g>
<g fill="none" color="black" stroke="currentColor" stroke-width="1.00" stroke-linecap="butt" stroke-linejoin="miter">
	<path stroke='black'  d='M167.3,446.0 L167.3,437.0 M167.3,18.1 L167.3,27.1  '/>	<g transform="translate(167.3,467.9)" stroke="none" fill="black" font-family="Arial" font-size="12.00"  text-anchor="middle">
		<text><tspan font-family="Arial" > 20</tspan></text>
	</g>
</g>
<g fill="none" color="black" stroke="currentColor" stroke-width="1.00" stroke-linecap="butt" stroke-linejoin="miter">
	<path stroke='black'  d='M223.9,446.0 L223.9,437.0 M223.9,18.1 L223.9,27.1  '/>	<g transform="translate(223.9,467.9)" stroke="none" fill="black" font-family="Arial" font-size="12.00"  text-anchor="middle">
		<text><tspan font-family="Arial" > 30</tspan></text>
	</g>
</g>
<g fill="none" color="black" stroke="currentColor" stroke-width="1.00" stroke-linecap="butt" stroke-linejoin="miter">
	<path stroke='black'  d='M280.6,446.0 L280.6,437.0 M280.6,18.1 L280.6,27.1  '/>	<g transform="translate(280.6,467.9)" stroke="none" fill="black" font-family="Arial" font-size="12.00"  text-anchor="middle">
		<text><tspan font-family="Arial" > 40</tspan></text>
	</g>
</g>
<g fill="none" color="black" stroke="currentColor" stroke-width="1.00" stroke-linecap="butt" stroke-linejoin="miter">
	<path stroke='black'  d='M337.3,446.0 L337.3,437.0 M337.3,18.1 L337.3,27.1  '/>	<g transform="translate(337.3,467.9)" stroke="none" fill="black" font-family="Arial" font-size="12.00"  text-anchor="middle">
		<text><tspan font-family="Arial" > 50</tspan></text>
	</g>
</g>
<g fill="none" color="black" stroke="currentColor" stroke-width="1.00" stroke-linecap="butt" stroke-linejoin="miter">
	<path stroke='black'  d='M394.0,446.0 L394.0,437.0 M394.0,18.1 L394.0,27.1  '/>	<g transform="translate(394.0,467.9)" stroke="none" fill="black" font-family="Arial" font-size="12.00"  text-anchor="middle">
		<text><tspan font-family="Arial" > 60</tspan></text>
	</g>
</g>
<g fill="none" color="black" stroke="currentColor" stroke-width="1.00" stroke-linecap="butt" stroke-linejoin="miter">
	<path stroke='black'  d='M450.6,446.0 L450.6,437.0 M450.6,18.1 L450.6,27.1  '/>	<g transform="translate(450.6,467.9)" stroke="none" fill="black" font-family="Arial" font-size="12.00"  text-anchor="middle">
		<text><tspan font-family="Arial" > 70</tspan></text>
	</g>
</g>
<g fill="none" color="black" stroke="currentColor" stroke-width="1.00" stroke-linecap="butt" stroke-linejoin="miter">
	<path stroke='black'  d='M507.3,446.0 L507.3,437.0 M507.3,18.1 L507.3,27.1  '/>	<g transform="translate(507.3,467.9)" stroke="none" fill="black" font-family="Arial" font-size="12.00"  text-anchor="middle">
		<text><tspan font-family="Arial" > 80</tspan></text>
	</g>
</g>
<g fill="none" color="black" stroke="currentColor" stroke-width="1.00" stroke-linecap="butt" stroke-linejoin="miter">
	<path stroke='black'  d='M564.0,446.0 L564.0,437.0 M564.0,18.1 L564.0,27.1  '/>	<g transform="translate(564.0,467.9)" stroke="none" fill="black" font-family="Arial" font-size="12.00"  text-anchor="middle">
		<text><tspan font-family="Arial" > 90</tspan></text>
	</g>
</g>
<g fill="none" color="black" stroke="currentColor" stroke-width="1.00" stroke-linecap="butt" stroke-linejoin="miter">
</g>
<g fill="none" color="black" stroke="currentColor" stroke-width="1.00" stroke-linecap="butt" stroke-linejoin="miter">
	<path stroke='black'  d='M53.9,18.1 L53.9,446.0 L615.0,446.0 L615.0,18.1 L53.9,18.1 Z  '/></g>
<g fill="none" color="black" stroke="currentColor" stroke-width="1.00" stroke-linecap="butt" stroke-linejoin="miter">
</g>
	<g id="gnuplot_plot_1" ><title>pages+cached+noexternal+nocss</title>
<g fill="none" color="black" stroke="currentColor" stroke-width="1.00" stroke-linecap="butt" stroke-linejoin="miter">
	<g transform="translate(275.6,485.9)" stroke="none" fill="black" font-family="Arial" font-size="12.00"  text-anchor="end">
		<text><tspan font-family="Arial" >pages+cached+noexternal+nocss</tspan></text>
	</g>
</g>
<g fill="none" color="black" stroke="currentColor" stroke-width="1.00" stroke-linecap="butt" stroke-linejoin="miter">
	<path stroke='rgb(148,   0, 211)'  d='M283.9,482.0 L326.1,482.0 M53.9,436.2 L59.6,433.2 L65.2,434.1 L70.9,433.0 L76.6,435.5 L82.2,433.4
		L87.9,433.9 L93.6,436.2 L99.2,430.9 L104.9,434.2 L110.6,434.4 L116.2,434.7 L121.9,435.9 L127.6,434.3
		L133.2,436.3 L138.9,435.7 L144.6,435.0 L150.3,434.4 L155.9,435.8 L161.6,435.8 L167.3,435.8 L172.9,433.2
		L178.6,435.6 L184.3,433.6 L189.9,434.6 L195.6,436.5 L201.3,432.5 L206.9,434.5 L212.6,434.9 L218.3,436.0
		L223.9,432.3 L229.6,433.1 L235.3,436.4 L240.9,434.9 L246.6,433.9 L252.3,435.4 L257.9,432.8 L263.6,434.6
		L269.3,434.3 L274.9,434.3 L280.6,434.3 L286.3,433.6 L291.9,433.9 L297.6,433.9 L303.3,435.9 L308.9,435.9
		L314.6,434.9 L320.3,433.3 L325.9,433.3 L331.6,436.4 L337.3,435.8 L343.0,436.3 L348.6,432.7 L354.3,434.1
		L360.0,432.4 L365.6,436.6 L371.3,435.2 L377.0,431.8 L382.6,434.4 L388.3,435.7 L394.0,433.8 L399.6,434.6
		L405.3,435.4 L411.0,434.8 L416.6,433.9 L422.3,434.0 L428.0,435.5 L433.6,435.6 L439.3,433.7 L445.0,435.2
		L450.6,436.4 L456.3,433.9 L462.0,433.9 L467.6,432.9 L473.3,433.8 L479.0,433.4 L484.6,432.0 L490.3,434.6
		L496.0,434.5 L501.6,433.4 L507.3,432.5 L513.0,433.2 L518.6,435.0 L524.3,434.5 L530.0,434.8 L535.7,432.1
		L541.3,433.2 L547.0,435.8 L552.7,435.8 L558.3,436.7 L564.0,433.3 L569.7,433.2 L575.3,433.9 L581.0,436.6
		L586.7,434.3 L592.3,436.0 L598.0,435.3 L603.7,432.5 L609.3,434.8 L615.0,434.8  '/></g>
	</g>
	<g id="gnuplot_plot_2" ><title>pages+cached+noexternal+nojs</title>
<g fill="none" color="black" stroke="currentColor" stroke-width="1.00" stroke-linecap="butt" stroke-linejoin="miter">
	<g transform="translate(575.1,485.9)" stroke="none" fill="black" font-family="Arial" font-size="12.00"  text-anchor="end">
		<text><tspan font-family="Arial" >pages+cached+noexternal+nojs</tspan></text>
	</g>
</g>
<g fill="none" color="black" stroke="currentColor" stroke-width="1.00" stroke-linecap="butt" stroke-linejoin="miter">
	<path stroke='rgb(  0, 158, 115)'  d='M583.4,482.0 L625.6,482.0 M53.9,432.9 L59.6,431.8 L65.2,433.8 L70.9,433.7 L76.6,433.8 L82.2,435.7
		L87.9,432.1 L93.6,433.5 L99.2,433.7 L104.9,431.5 L110.6,426.4 L116.2,434.9 L121.9,430.2 L127.6,435.2
		L133.2,429.4 L138.9,435.8 L144.6,425.4 L150.3,426.8 L155.9,433.6 L161.6,434.5 L167.3,431.2 L172.9,434.8
		L178.6,434.5 L184.3,426.3 L189.9,434.2 L195.6,430.3 L201.3,436.4 L206.9,433.6 L212.6,436.1 L218.3,425.3
		L223.9,436.1 L229.6,437.8 L235.3,81.6 L240.9,424.5 L246.6,432.1 L252.3,431.9 L257.9,433.6 L263.6,434.1
		L269.3,435.7 L274.9,432.1 L280.6,435.7 L286.3,434.7 L291.9,41.1 L297.6,433.8 L303.3,433.7 L308.9,432.9
		L314.6,436.0 L320.3,434.1 L325.9,433.2 L331.6,436.0 L337.3,112.1 L343.0,433.7 L348.6,433.8 L354.3,425.8
		L360.0,435.6 L365.6,26.3 L371.3,434.2 L377.0,422.7 L382.6,429.0 L388.3,434.0 L394.0,432.2 L399.6,431.9
		L405.3,431.2 L411.0,434.8 L416.6,429.3 L422.3,433.6 L428.0,426.0 L433.6,433.0 L439.3,434.1 L445.0,433.4
		L450.6,428.2 L456.3,434.5 L462.0,432.9 L467.6,435.4 L473.3,436.5 L479.0,434.2 L484.6,432.3 L490.3,434.6
		L496.0,436.3 L501.6,425.7 L507.3,435.7 L513.0,435.2 L518.6,434.5 L524.3,436.6 L530.0,433.1 L535.7,436.5
		L541.3,434.2 L547.0,434.4 L552.7,434.1 L558.3,433.4 L564.0,427.5 L569.7,435.8 L575.3,434.6 L581.0,425.5
		L586.7,433.0 L592.3,434.7 L598.0,433.7 L603.7,433.2 L609.3,430.9 L615.0,431.3  '/></g>
	</g>
<g fill="none" color="#FFFFFF" stroke="rgb(  0, 158, 115)" stroke-width="2.00" stroke-linecap="butt" stroke-linejoin="miter">
</g>
<g fill="none" color="black" stroke="currentColor" stroke-width="2.00" stroke-linecap="butt" stroke-linejoin="miter">
</g>
<g fill="none" color="black" stroke="black" stroke-width="1.00" stroke-linecap="butt" stroke-linejoin="miter">
</g>
<g fill="none" color="black" stroke="currentColor" stroke-width="1.00" stroke-linecap="butt" stroke-linejoin="miter">
	<path stroke='black'  d='M53.9,18.1 L53.9,446.0 L615.0,446.0 L615.0,18.1 L53.9,18.1 Z  '/></g>
<g fill="none" color="black" stroke="currentColor" stroke-width="1.00" stroke-linecap="butt" stroke-linejoin="miter">
</g>
</g>
</svg>
